X: 15759
T: Good For The Tongue
R: hornpipe
M: 4/4
K: Gmajor
|:EF|GABc dGFG|eGfG gGFG|EcDB CcFG|ABcA GFED|
GABc dGFG|eGfG gGFG|EcDB CcFG|BAGF G2:|
|:Bc|dGFG eGFG|gfge dBGB|cded cBAG|Fd^cd =cAFD|
GABc dGFG|eGfG gGFG|EcDB CcFG|BAGF G2:|

